!! 00000] TT[WS
!!!OTL: Xiangqinqin xiangde jianbushang mian
!!!ARE: Asia, China, Shanxi Hequ
!! Ethnic Group: Han
!! WII, 35
!!!SCT: J0447
!!!YEM: Copyright 1995, estate of Helmut Schaffrath.
**kern
*ICvox
*Ivox
*M2/4
*k[b-]
*F:
{8dd
4dd
16dd
16ee
=1
8dd
8cc
4a
=2
8a
8cc
8dd
16ff
16ee
=3
2dd}
=4
{8dd
4dd
16dd
16ee
=5
8dd
8cc
4a
=6
8a
8cc
8dd
8cc
=7
8a
4.g}
==
!!!AGN: Shange, Shanqu. Qingge
!!!ONB: ESAC (Essen Associative Code) Database: CHINA
!!!AMT: simple duple
!!!AIN: vox
!!!EED: Helmut Schaffrath
!!!EEV: 1.0
*-
